assets/svg/ficon/qrcode.svg

<?xml version="1.0" encoding="utf-8"?>
<svg width="1792" height="1792" viewBox="0 0 1792 1792" xmlns="http://www.w3.org/2000/svg"><path d="M576 1152v128h-128v-128h128zm0-768v128h-128v-128h128zm768 0v128h-128v-128h128zm-1024 1023h384v-383h-384v383zm0-767h384v-384h-384v384zm768 0h384v-384h-384v384zm-256 256v640h-640v-640h640zm512 512v128h-128v-128h128zm256 0v128h-128v-128h128zm0-512v384h-384v-128h-128v384h-128v-640h384v128h128v-128h128zm-768-768v640h-640v-640h640zm768 0v640h-640v-640h640z" fill="#60be86"/></svg>

<svg width="1792" height="1792" xmlns="http://www.w3.org/2000/svg"><path d="M576 1152v128H448v-128h128zm0-768v128H448V384h128zm768 0v128h-128V384h128zM320 1407h384v-383H320v383zm0-767h384V256H320v384zm768 0h384V256h-384v384zM832 896v640H192V896h640zm512 512v128h-128v-128h128zm256 0v128h-128v-128h128zm0-512v384h-384v-128h-128v384H960V896h384v128h128V896h128zM832 128v640H192V128h640zm768 0v640H960V128h640z" fill="#60be86"/></svg>
